X:2587
T:Highland Reel. JMT107
T:Johnny McGill. JMT107
T:Come Under My Plaidie. JMT107
O:england
M:6/8
L:1/8
S:J.Moore,Tyneside,1841.(75b)
R:Jig
A:Northumbria
N:A.K.A. "The Black Rogue
K:G
|:g|dBB BAG|dBBB2g|dBB BAB|GEEE2:|
|B|gfg aga|bge dcB|gfg aga|bge ega|
bag agf|gfe dgf|dcc cdc|BGE"DC"E2|]


